X: 33717
T: Rascal, The
R: polka
M: 2/4
K: Dminor
|:D/E/F/A/ dA|FD DF|E/D/C GC|AC GC|
D/E/F/A/ dF|AD DF|E/D/C GC|ED DE:|
|:ab/a/ ga|fd df|ab/a/ ga|ec ce|
ab/a/ ga|fd df|e/d/c gc|ed df:|

